img/vector/chars/Vector-A.svg

<svg width="131" height="111" viewBox="0 0 131 111" fill="none" xmlns="http://www.w3.org/2000/svg">
<path d="M53.9883 63.6595H76.3911L66.5871 36.1196C66.3786 35.7071 66.1457 35.2146 65.8862 34.6468C65.6311 34.0746 65.4004 33.7862 65.1941 33.7862C64.9812 33.7862 64.7439 34.0746 64.4844 34.6468C64.2293 35.2146 63.9986 35.7071 63.7923 36.1196L53.9883 63.6595ZM40.2983 14.0274C41.1256 12.06 42.1105 10.2456 43.2528 8.58868C44.3929 6.92733 45.8967 5.5255 47.7599 4.38318C49.6276 3.24308 51.9388 2.36028 54.6893 1.73922C57.4375 1.12037 60.9398 0.807617 65.1941 0.807617C67.7827 0.807617 70.298 0.938485 72.7357 1.198C75.1711 1.45308 77.4513 2.02091 79.5762 2.9015C81.7034 3.7843 83.6775 5.1085 85.4941 6.87632C87.3085 8.6397 88.839 11.0241 90.0811 14.0274L130.379 110.958H93.355L84.7932 88.5553H45.5862L37.0244 110.958H0L40.2983 14.0274Z"/>
</svg>

<?xml-stylesheet type="text/css" href="/mainstyle.css" ?>

<svg class="svg__a" width="131" height="111" viewBox="0 0 131 111" fill="none" xmlns="http://www.w3.org/2000/svg">
  <path
    d="M53.988 63.66h22.403l-9.803-27.54a42.644 42.644 0 0 1-.7-1.473c-.256-.572-.487-.86-.693-.86-.213 0-.45.288-.71.86-.255.568-.485 1.06-.692 1.473l-9.804 27.54zm-13.69-49.633a30.12 30.12 0 0 1 2.955-5.438c1.14-1.663 2.644-3.065 4.507-4.207 1.868-1.14 4.179-2.023 6.93-2.644 2.748-.62 6.25-.932 10.504-.932 2.589 0 5.104.13 7.542.39 2.435.255 4.715.823 6.84 1.704 2.127.882 4.102 2.207 5.918 3.974 1.814 1.764 3.345 4.148 4.587 7.151l40.3 96.93H93.354l-8.562-22.402H45.586l-8.562 22.403H0l40.298-96.93z" />
</svg>
